X: 16163
T: Green Little Shamrock, The
R: waltz
M: 3/4
K: Amajor
EE|A3Bc2|c4A2|B2f2e2|c4cB|A3Bc2|c2c3B|A2F4|
z4FE|A3Bc2|c3BA2|B2f2e2|c4cB|A3G FE|^D2F2B2|G2E4|
z4E2|B2B2c2|d4dd|A4AB|c2e2cc|c2f2f2|f4 cA|F2A2c2|f2a2ed|
c4de|F2d2c2|f4 dB|A2G2E2|e4 cA|a4 fd|c3d Be|c2A2||

